build/images/europe/icon-plane-red.svg

<?xml version="1.0" encoding="UTF-8"?>
<svg width="16px" height="16px" viewBox="0 0 16 16" version="1.1" xmlns="http://www.w3.org/2000/svg" xmlns:xlink="http://www.w3.org/1999/xlink">
    <!-- Generator: Sketch 46.2 (44496) - http://www.bohemiancoding.com/sketch -->
    <title>pointer</title>
    <desc>Created with Sketch.</desc>
    <defs></defs>
    <g id="Page-1" stroke="none" stroke-width="1" fill="none" fill-rule="evenodd">
        <g id="1440_Landing_Europe" transform="translate(-110.000000, -449.000000)" fill-rule="nonzero">
            <g id="Line" transform="translate(110.000000, 449.000000)">
                <g id="pointer">
                    <path d="M7.99992,0 C3.58171303,0 0,3.58178388 0,7.99978667 C0,12.4177895 3.58171303,16 7.99986666,16 C12.4180203,16 16,12.4179495 16,7.99978667 C16,3.58162388 12.4180736,0 7.99992,0 Z" id="Shape" fill="#FF4B34"></path>
                    <path d="M11.9231246,4.99027045 C12.0448374,4.62496148 12.0220662,4.34338706 11.8545112,4.14542722 C11.6566479,3.97795812 11.3750372,3.95520504 11.0096789,4.07676809 C10.6443606,4.19855108 10.3170876,4.40402863 10.0278398,4.69324073 L9.11461406,5.60662313 L5.31894649,4.69901897 C5.25805011,4.67996476 5.20097225,4.69518014 5.1477329,4.7446451 L4.41707634,5.47532303 C4.37527256,5.51723029 4.35809922,5.56859468 4.36573626,5.62947618 C4.37715183,5.69043765 4.40951927,5.73604379 4.46277861,5.76651453 L7.36241378,7.35915048 L5.88402728,8.83766112 L4.77669684,8.53519305 C4.76909978,8.53135422 4.75392567,8.5294348 4.73107454,8.5294348 C4.67777521,8.5294348 4.63405217,8.54652961 4.59978547,8.58081918 L4.05185802,9.13449091 C4.01381278,9.18005706 3.99671941,9.22766259 4.00051794,9.27708757 C4.008075,9.33796907 4.03280541,9.38175576 4.07470916,9.40844764 L5.51307118,10.4872598 L6.5918327,11.9257026 C6.62609941,11.9676498 6.67178169,11.9922624 6.72885955,12 L6.74027512,12 C6.79357444,12 6.83729748,11.9829052 6.87156419,11.9486956 L7.41947164,11.4007821 C7.46893246,11.3474183 7.48416655,11.2884363 7.46517391,11.2237559 L7.16263128,10.1163325 L8.64099778,8.63772189 L10.23358,11.5377605 C10.2563711,11.5872454 10.2963156,11.6176762 10.3534335,11.6291127 C10.3647891,11.6329316 10.3781239,11.634791 10.393398,11.634791 C10.4389603,11.634791 10.4751663,11.6233545 10.5017759,11.6005614 L11.2325325,11.0525879 C11.2971074,10.9993441 11.3199586,10.9366032 11.3010259,10.8642852 L10.3877802,6.89127268 L11.3067637,5.972252 C11.5958915,5.68291994 11.8013518,5.35557942 11.9231246,4.99027045 Z" id="Shape" fill="#FFFFFF"></path>
                </g>
            </g>
        </g>
    </g>
</svg>

<svg width="16" height="16" viewBox="0 0 16 16" xmlns="http://www.w3.org/2000/svg"><title>pointer</title><g fill-rule="nonzero" fill="none"><path d="M8 0a8 8 0 1 0 0 16A8 8 0 0 0 8 0z" fill="#FF4B34"/><path d="M11.923 4.99c.122-.365.1-.647-.068-.845-.198-.167-.48-.19-.845-.068a2.492 2.492 0 0 0-.982.616l-.913.914-3.796-.908c-.06-.019-.118-.004-.171.046l-.73.73a.176.176 0 0 0-.052.154.191.191 0 0 0 .097.138l2.9 1.592-1.479 1.479-1.107-.303a.117.117 0 0 0-.046-.006.178.178 0 0 0-.131.052l-.548.553A.195.195 0 0 0 4 9.277c.007.061.032.105.074.131l1.438 1.08 1.079 1.438c.034.042.08.066.137.074h.011a.178.178 0 0 0 .132-.051l.547-.548a.174.174 0 0 0 .046-.177l-.302-1.108L8.64 8.638l1.593 2.9c.022.05.062.08.12.091a.126.126 0 0 0 .04.006.161.161 0 0 0 .108-.034l.73-.548c.065-.054.088-.116.069-.189l-.913-3.973.919-.919c.289-.29.494-.616.616-.982z" fill="#FFF"/></g></svg>
